svg/google.svg

<svg viewBox="0 0 20 20" xmlns="http://www.w3.org/2000/svg">
<rect width="100%" height="100%" fill="white"/>
<path d="M17.3763 8.6001C17.8513 11.7909 16.9224 14.2577 15.2159 15.8071L12.7989 13.9244C13.596 13.3551 14.1546 12.5114 14.3675 11.5553H10.175V8.6001H17.3763Z" fill="#4286F5"/>
<path d="M15.3001 4.30423L13.0976 6.47993C12.304 5.73221 11.2519 5.32043 10.1616 5.33079C9.19506 5.3358 8.25473 5.64533 7.47423 6.21541C6.69374 6.78548 6.1128 7.58707 5.81399 8.50624L3.31079 6.55654C3.83952 5.50036 4.60531 4.58073 5.54831 3.86953C6.49132 3.15832 7.586 2.67479 8.74682 2.45672C9.90765 2.23865 11.1032 2.29194 12.24 2.61243C13.3768 2.93292 14.4241 3.51194 15.3001 4.30423V4.30423Z" fill="#EA4235"/>
<path d="M12.7988 13.9244L15.2158 15.8071C13.8982 17.0041 12.1151 17.6476 10.1616 17.6476C8.7395 17.6478 7.34547 17.2521 6.13553 16.5049C4.9256 15.7577 3.94752 14.6884 3.31079 13.4169L5.81399 11.4749C6.11313 12.3937 6.69421 13.1948 7.47467 13.7645C8.25514 14.3343 9.19529 14.6435 10.1616 14.6484C11.2552 14.6484 12.1285 14.3917 12.7988 13.9244V13.9244Z" fill="#34A853"/>
<path d="M3.31084 6.55652L5.81404 8.50048C5.4948 9.46623 5.4948 10.5091 5.81404 11.4748L3.31084 13.4169C2.77763 12.352 2.5 11.1776 2.5 9.98669C2.5 8.79582 2.77763 7.62135 3.31084 6.55652V6.55652Z" fill="#FBBC05"/>
</svg>

<svg xmlns="http://www.w3.org/2000/svg" viewBox="0 0 20 20">
  <rect width="100%" height="100%" fill="#fff"/>
  <path fill="#4286F5" d="M17.38 8.6c.47 3.2-.46 5.66-2.16 7.2l-2.42-1.88a3.97 3.97 0 0 0 1.57-2.36h-4.2V8.6h7.2Z"/>
  <path fill="#EA4235" d="m15.3 4.3-2.2 2.18a4.22 4.22 0 0 0-2.94-1.15 4.6 4.6 0 0 0-4.35 3.18l-2.5-1.95A7.66 7.66 0 0 1 15.3 4.3Z"/>
  <path fill="#34A853" d="m12.8 13.92 2.42 1.89a7.43 7.43 0 0 1-5.06 1.84 7.66 7.66 0 0 1-6.85-4.23l2.5-1.95a4.6 4.6 0 0 0 4.35 3.18c1.1 0 1.97-.26 2.64-.73Z"/>
  <path fill="#FBBC05" d="m3.31 6.56 2.5 1.94c-.32.97-.32 2 0 2.97l-2.5 1.95a7.66 7.66 0 0 1 0-6.86Z"/>
</svg>
